Obsidian/actions/24s/fitwidth.svg

<svg height="24" viewBox="0 0 24 24" width="24" xmlns="http://www.w3.org/2000/svg"><path d="m20 12-2-1.5-2-1.5v2h-8v-2l-2 1.5-2 1.5 2 1.5 2 1.5v-2h8v2l2-1.5z" fill="#bebebe"/></svg>

<svg xmlns="http://www.w3.org/2000/svg" width="24" height="24" version="1.1" viewBox="0 0 24 24">
 <defs>
  <style id="current-color-scheme" type="text/css">
   .ColorScheme-Text { color:#bebebe; } .ColorScheme-Highlight { color:#4285f4; }
  </style>
 </defs>
 <path style="fill:currentColor" class="ColorScheme-Text" d="M 20,12 18,10.5 16,9 v 2 H 8 V 9 L 6,10.5 4,12 6,13.5 8,15 v -2 h 8 v 2 l 2,-1.5 z"/>
</svg>
